overrides/.icons/ui/chdiv-pal.svg

<?xml version="1.0" encoding="UTF-8" standalone="no"?>
<!-- Created with Inkscape (http://www.inkscape.org/) -->

<svg
   width="24"
   height="24"
   viewBox="0 0 6.3499999 6.35"
   version="1.1"
   id="svg1"
   xml:space="preserve"
   sodipodi:docname="chdiv-pal.svg"
   inkscape:version="1.4 (86a8ad7, 2024-10-11)"
   xmlns:inkscape="http://www.inkscape.org/namespaces/inkscape"
   xmlns:sodipodi="http://sodipodi.sourceforge.net/DTD/sodipodi-0.dtd"
   xmlns="http://www.w3.org/2000/svg"
   xmlns:svg="http://www.w3.org/2000/svg"><sodipodi:namedview
     id="namedview1"
     pagecolor="#ffffff"
     bordercolor="#111111"
     borderopacity="1"
     inkscape:showpageshadow="0"
     inkscape:pageopacity="0"
     inkscape:pagecheckerboard="1"
     inkscape:deskcolor="#d1d1d1"
     inkscape:document-units="px"
     inkscape:zoom="4"
     inkscape:cx="-8.75"
     inkscape:cy="39.125"
     inkscape:window-width="1920"
     inkscape:window-height="1017"
     inkscape:window-x="-8"
     inkscape:window-y="-8"
     inkscape:window-maximized="1"
     inkscape:current-layer="layer1" /><defs
     id="defs1"><inkscape:path-effect
       effect="fillet_chamfer"
       id="path-effect7"
       is_visible="true"
       lpeversion="1"
       nodesatellites_param="F,0,0,1,0,0,0,1 @ F,0,0,1,0,1.0141711,0,1 @ F,0,0,1,0,0,0,1 @ F,0,0,1,0,0,0,1 @ F,0,0,1,0,0,0,1 @ F,0,0,1,0,0,0,1 @ F,0,0,1,0,0,0,1"
       radius="0"
       unit="px"
       method="auto"
       mode="F"
       chamfer_steps="1"
       flexible="false"
       use_knot_distance="true"
       apply_no_radius="true"
       apply_with_radius="true"
       only_selected="false"
       hide_knots="false" /><inkscape:path-effect
       effect="fillet_chamfer"
       id="path-effect8"
       is_visible="true"
       lpeversion="1"
       nodesatellites_param="F,0,0,1,0,0,0,1 @ F,0,0,1,0,0,0,1 @ F,0,0,1,0,0,0,1 @ F,0,0,1,0,0,0,1 @ F,0,0,1,0,0,0,1 @ F,0,0,1,0,0,0,1 @ F,0,0,1,0,0,0,1 @ F,0,0,1,0,0,0,1 @ F,0,0,1,0,0,0,1 @ F,0,0,1,0,0,0,1 @ F,0,0,1,0,0,0,1 @ F,0,0,1,0,0,0,1 @ F,0,0,1,0,0,0,1 @ F,0,0,1,0,0,0,1 @ F,0,0,1,0,0,0,1 @ F,0,0,1,0,0,0,1"
       radius="0"
       unit="px"
       method="auto"
       mode="F"
       chamfer_steps="1"
       flexible="false"
       use_knot_distance="true"
       apply_no_radius="true"
       apply_with_radius="true"
       only_selected="false"
       hide_knots="false" /><inkscape:path-effect
       effect="fillet_chamfer"
       id="path-effect6"
       is_visible="true"
       lpeversion="1"
       nodesatellites_param=""
       radius="0"
       unit="px"
       method="auto"
       mode="F"
       chamfer_steps="1"
       flexible="false"
       use_knot_distance="true"
       apply_no_radius="true"
       apply_with_radius="true"
       only_selected="false"
       hide_knots="false" /><inkscape:path-effect
       effect="fillet_chamfer"
       id="path-effect5"
       is_visible="true"
       lpeversion="1"
       nodesatellites_param="F,0,0,1,0,0,0,1 @ F,0,0,1,0,0,0,1 @ F,0,0,1,0,0,0,1 @ F,0,0,1,0,0,0,1 @ F,0,0,1,0,0,0,1 @ F,0,0,1,0,0,0,1 @ F,0,0,1,0,0,0,1 @ F,0,0,1,0,0,0,1 @ F,0,0,1,0,0,0,1 @ F,0,0,1,0,0,0,1 @ F,0,0,1,0,0,0,1 @ F,0,0,1,0,0,0,1 @ F,0,0,1,0,0,0,1 @ F,0,0,1,0,0,0,1 @ F,0,0,1,0,0,0,1 @ F,0,0,1,0,0,0,1"
       radius="0"
       unit="px"
       method="auto"
       mode="F"
       chamfer_steps="1"
       flexible="false"
       use_knot_distance="true"
       apply_no_radius="true"
       apply_with_radius="true"
       only_selected="false"
       hide_knots="false" /><inkscape:path-effect
       effect="fillet_chamfer"
       id="path-effect4"
       is_visible="true"
       lpeversion="1"
       nodesatellites_param="F,0,0,1,0,0,0,1 @ F,0,0,1,0,0,0,1 @ F,0,0,1,0,0,0,1 @ F,0,0,1,0,0,0,1 @ F,0,0,1,0,0,0,1 @ F,0,0,1,0,0,0,1 @ F,0,0,1,0,0,0,1 @ F,0,0,1,0,0,0,1 @ F,0,0,1,0,0,0,1 @ F,0,0,1,0,0,0,1 @ F,0,0,1,0,0,0,1 @ F,0,0,1,0,0,0,1 @ F,0,0,1,0,0,0,1 @ F,0,0,1,0,0,0,1 @ F,0,0,1,0,0,0,1 @ F,0,0,1,0,0,0,1"
       radius="0"
       unit="px"
       method="auto"
       mode="F"
       chamfer_steps="1"
       flexible="false"
       use_knot_distance="true"
       apply_no_radius="true"
       apply_with_radius="true"
       only_selected="false"
       hide_knots="false" /><inkscape:path-effect
       effect="fillet_chamfer"
       id="path-effect3"
       is_visible="true"
       lpeversion="1"
       nodesatellites_param="F,0,0,1,0,0,0,1 @ F,0,0,1,0,0,0,1 @ F,0,0,1,0,0,0,1 @ F,0,0,1,0,0,0,1 @ F,0,0,1,0,0,0,1 @ F,0,0,1,0,0,0,1 @ F,0,0,1,0,0,0,1 @ F,0,0,1,0,0,0,1 @ F,0,0,1,0,0,0,1 @ F,0,0,1,0,0,0,1 @ F,0,0,1,0,0,0,1 @ F,0,0,1,0,0,0,1 @ F,0,0,1,0,0,0,1 @ F,0,0,1,0,0,0,1 @ F,0,0,1,0,0,0,1 @ F,0,0,1,0,0,0,1"
       radius="0"
       unit="px"
       method="auto"
       mode="F"
       chamfer_steps="1"
       flexible="false"
       use_knot_distance="true"
       apply_no_radius="true"
       apply_with_radius="true"
       only_selected="false"
       hide_knots="false" /><inkscape:path-effect
       effect="fillet_chamfer"
       id="path-effect2"
       is_visible="true"
       lpeversion="1"
       nodesatellites_param="F,0,0,1,0,0,0,1 @ F,0,0,1,0,0,0,1 @ F,0,0,1,0,0,0,1 @ F,0,0,1,0,0,0,1 @ F,0,0,1,0,0,0,1 @ F,0,0,1,0,0,0,1 @ F,0,0,1,0,0,0,1 @ F,0,0,1,0,0,0,1 @ F,0,0,1,0,0,0,1 @ F,0,0,1,0,0,0,1 @ F,0,0,1,0,0,0,1 @ F,0,0,1,0,0,0,1 @ F,0,0,1,0,0,0,1 @ F,0,0,1,0,0,0,1 @ F,0,0,1,0,0,0,1 @ F,0,0,1,0,0,0,1"
       radius="0"
       unit="px"
       method="auto"
       mode="F"
       chamfer_steps="1"
       flexible="false"
       use_knot_distance="true"
       apply_no_radius="true"
       apply_with_radius="true"
       only_selected="false"
       hide_knots="false" /></defs><g
     inkscape:label="Layer 1"
     inkscape:groupmode="layer"
     id="layer1"><path
       id="path7"
       style="stroke-width:0.264583"
       d="M 3.175 0.26458333 L 2.9005981 0.45320231 A 5.3780333 5.3780333 0 0 1 1.0769368 1.2567708 L 0.79374999 1.3229167 L 0.79374999 2.9104166 C 0.79374999 4.3788541 1.80975 5.7520416 3.175 6.0854166 C 4.5402501 5.7520416 5.55625 4.3788541 5.55625 2.9104166 L 5.55625 1.3229167 L 5.2730631 1.2567708 A 5.3780333 5.3780333 0 0 1 3.4494018 0.45320231 L 3.175 0.26458333 z M 3.1713826 0.92604166 L 3.4251139 1.4738118 L 3.4251139 2.374532 L 3.4251139 3.2111735 L 3.4251139 3.2706014 L 3.4251139 3.7796142 L 3.8602295 3.7770304 A 0.12695298 0.12695298 0 0 1 3.9501465 3.8142374 A 0.12695298 0.12695298 0 0 1 3.9878702 3.9036377 A 0.12695298 0.12695298 0 0 1 3.8617798 4.0317952 L 3.3362304 4.0338623 L 3.3362304 4.8358805 A 0.31738245 0.31738245 0 0 1 3.3956583 4.8823893 A 0.31738245 0.31738245 0 0 1 3.3956583 5.3314575 A 0.31738245 0.31738245 0 0 1 3.1961873 5.4229248 A 0.31738245 0.31738245 0 0 1 3.1212565 5.4203409 A 0.31738245 0.31738245 0 0 1 2.9471069 5.3314575 A 0.31738245 0.31738245 0 0 1 2.9471069 4.8823893 A 0.31738245 0.31738245 0 0 1 3.006018 4.8358805 L 3.006018 4.0359293 L 2.4902873 4.0385132 A 0.12695298 0.12695298 0 0 1 2.3621297 3.9124227 A 0.12695298 0.12695298 0 0 1 2.4882202 3.7847819 L 2.9176513 3.7827148 L 2.9176513 3.6209676 L 2.9176513 3.5295003 L 2.9176513 3.2706014 L 2.9176513 3.2111735 L 2.9176513 2.374532 L 2.9171346 1.4738118 L 3.1713826 0.92604166 z " /></g></svg>

<?xml version="1.0" encoding="UTF-8"?>
<!-- Created with Inkscape (http://www.inkscape.org/) -->
<svg id="svg1" width="24" height="24" version="1.1" viewBox="0 0 6.35 6.35" xml:space="preserve" xmlns="http://www.w3.org/2000/svg"><g id="layer1"><path id="path7" d="m3.175 0.26458-0.2744 0.18862a5.378 5.378 0 0 1-1.8237 0.80357l-0.28319 0.066146v1.5875c0 1.4684 1.016 2.8416 2.3813 3.175 1.3653-0.33338 2.3812-1.7066 2.3812-3.175v-1.5875l-0.28319-0.066146a5.378 5.378 0 0 1-1.8237-0.80357l-0.2744-0.18862zm-0.0036174 0.66146 0.25373 0.54777v0.90072 0.83664 0.059428 0.50901l0.43512-0.0025838a0.12695 0.12695 0 0 1 0.089917 0.037207 0.12695 0.12695 0 0 1 0.037724 0.0894 0.12695 0.12695 0 0 1-0.12609 0.12816l-0.52555 0.0020671v0.80202a0.31738 0.31738 0 0 1 0.059428 0.046509 0.31738 0.31738 0 0 1 0 0.44907 0.31738 0.31738 0 0 1-0.19947 0.091467 0.31738 0.31738 0 0 1-0.074931-0.0025839 0.31738 0.31738 0 0 1-0.17415-0.088883 0.31738 0.31738 0 0 1 0-0.44907 0.31738 0.31738 0 0 1 0.058911-0.046509v-0.79995l-0.51573 0.0025839a0.12695 0.12695 0 0 1-0.12816-0.12609 0.12695 0.12695 0 0 1 0.12609-0.12764l0.42943-0.0020671v-0.16175-0.091467-0.2589-0.059428-0.83664l-5.167e-4 -0.90072 0.25425-0.54777z" stroke-width=".26458"/></g></svg>
